X:26
T:Auld Stewarts of Forthergill
R:Reel
C:James Stewart-Robertson
B:The Athole Collection
M:C|
L:1/8
K:C
E|C2EG c2eg|agec dAAc|C2EG c2eg|gede c/c/c ~c:|
g|agec dcAc|GcEc Addg|agec dcAc|GEDE CC/C/ C3g|
agec dcAc|GcEc Adde|C2EG c2ea|gede c/c/c ~c||

